X: 27
T:No Matter For That. JB.27
M:4/4
L:1/8
Q:180
S:James Biggins MS, Leeds, 1779.
R:Scots Measure
O:England
A:Yorkshire
Z:
Z:vmp.Nick Barber & Chris Partingto
K:F
c|fgagf2c2|defd cAGF|fgag afed|cdc=Bc3:|
|d|"tr"c2ABc2fd|"tr"B2GA"tr"B2gB|{B}A2GF dBAG|FGFAF3|]
